X: 4036
T: SCOTLAND YET
R: Strathspey.
%R: strathspey
B: James Kerr "Merry Melodies" v.4 p.07 #36
Z: 2016 John Chambers <jc:trillian.mit.edu>
M: C
L: 1/8
K: D
uA |\
F<D A>F d>BG>B | A<F F>D E2-EG |\
F<D A>F d>BB>d | c<e E>^G A2-A ::\
A |\
d>Ae>A f>ed>f | e>d c<B A2-AG |\
F<A d>A f>dB>d | A<d f>e d2-d :|

%%sep 1 1 500
%%sep 1 1 500

